{
  "type": "map",
  "version": "1.10",
  "tiledversion": "1.10.2",
  "orientation": "orthogonal",
  "renderorder": "right-down",
  "infinite": false,
  "width": 30,
  "height": 20,
  "tilewidth": 16,
  "tileheight": 16,
  "nextlayerid": 3,
  "nextobjectid": 16,
  "tilesets": [
    {
      "firstgid": 1,
      "name": "forge",
      "tilewidth": 16,
      "tileheight": 16,
      "tilecount": 2,
      "columns": 2,
      "margin": 0,
      "spacing": 0,
      "image": "forge-tileset.png",
      "imagewidth": 32,
      "imageheight": 16,
      "tiles": [
        {
          "id": 1,
          "properties": [
            {
              "name": "collides",
              "type": "bool",
              "value": true
            }
          ]
        }
      ]
    }
  ],
  "layers": [
    {
      "id": 1,
      "type": "tilelayer",
      "name": "Ground",
      "x": 0,
      "y": 0,
      "width": 30,
      "height": 20,
      "opacity": 1,
      "visible": true,
      "data": [
        2,
        2,
        2,
        2,
        2,
        2,
        2,
        2,
        2,
        2,
        2,
        2,
        2,
        2,
        2,
        2,
        2,
        2,
        2,
        2,
        2,
        2,
        2,
        2,
        2,
        2,
        2,
        2,
        2,
        2,
        2,
        1,
        1,
        1,
        1,
        1,
        1,
        1,
        1,
        1,
        1,
        1,
        1,
        1,
        1,
        1,
        1,
        1,
        1,
        1,
        1,
        1,
        1,
        1,
        1,
        1,
        1,
        1,
        1,
        2,
        2,
        1,
        1,
        1,
        1,
        1,
        1,
        1,
        1,
        1,
        1,
        1,
        1,
        1,
        1,
        1,
        1,
        1,
        1,
        1,
        1,
        1,
        1,
        1,
        1,
        1,
        1,
        1,
        1,
        2,
        2,
        1,
        1,
        1,
        2,
        2,
        2,
        2,
        2,
        2,
        1,
        1,
        1,
        1,
        1,
        1,
        2,
        1,
        1,
        1,
        1,
        1,
        1,
        1,
        1,
        1,
        1,
        1,
        1,
        2,
        2,
        1,
        1,
        1,
        2,
        1,
        1,
        1,
        1,
        2,
        1,
        1,
        1,
        1,
        1,
        1,
        1,
        1,
        1,
        1,
        2,
        2,
        2,
        2,
        2,
        2,
        1,
        1,
        1,
        2,
        2,
        1,
        1,
        1,
        2,
        1,
        1,
        1,
        1,
        2,
        1,
        1,
        1,
        1,
        1,
        1,
        1,
        1,
        1,
        1,
        1,
        1,
        1,
        1,
        1,
        2,
        1,
        1,
        1,
        2,
        2,
        1,
        1,
        1,
        2,
        1,
        1,
        1,
        1,
        2,
        1,
        1,
        1,
        2,
        1,
        1,
        1,
        1,
        1,
        1,
        1,
        1,
        1,
        1,
        1,
        2,
        1,
        1,
        1,
        2,
        2,
        1,
        1,
        1,
        2,
        2,
        2,
        1,
        1,
        2,
        1,
        1,
        1,
        2,
        1,
        1,
        1,
        1,
        1,
        1,
        1,
        1,
        1,
        1,
        1,
        2,
        1,
        1,
        1,
        2,
        2,
        1,
        1,
        1,
        1,
        1,
        1,
        1,
        1,
        1,
        1,
        1,
        1,
        2,
        1,
        1,
        1,
        1,
        1,
        1,
        1,
        1,
        1,
        1,
        1,
        2,
        1,
        1,
        1,
        2,
        2,
        1,
        1,
        1,
        1,
        1,
        1,
        1,
        1,
        1,
        1,
        1,
        1,
        2,
        1,
        1,
        1,
        1,
        1,
        1,
        1,
        1,
        2,
        2,
        2,
        2,
        1,
        1,
        1,
        2,
        2,
        1,
        1,
        1,
        1,
        1,
        1,
        1,
        1,
        2,
        1,
        1,
        1,
        1,
        1,
        1,
        1,
        1,
        1,
        1,
        1,
        1,
        1,
        1,
        1,
        1,
        1,
        1,
        1,
        2,
        2,
        1,
        1,
        1,
        1,
        1,
        1,
        1,
        1,
        1,
        1,
        1,
        1,
        2,
        1,
        1,
        1,
        1,
        1,
        1,
        1,
        1,
        2,
        1,
        1,
        1,
        1,
        1,
        1,
        2,
        2,
        1,
        1,
        1,
        1,
        1,
        2,
        2,
        2,
        2,
        2,
        2,
        1,
        2,
        1,
        1,
        1,
        1,
        1,
        1,
        1,
        1,
        1,
        1,
        1,
        1,
        1,
        1,
        1,
        2,
        2,
        1,
        1,
        1,
        1,
        1,
        2,
        1,
        1,
        1,
        1,
        1,
        1,
        2,
        1,
        1,
        1,
        1,
        2,
        2,
        2,
        2,
        2,
        2,
        2,
        1,
        1,
        1,
        1,
        2,
        2,
        1,
        1,
        1,
        1,
        1,
        2,
        1,
        1,
        1,
        1,
        1,
        1,
        2,
        1,
        1,
        1,
        1,
        2,
        1,
        1,
        1,
        1,
        1,
        1,
        1,
        1,
        1,
        1,
        2,
        2,
        1,
        1,
        1,
        1,
        1,
        2,
        1,
        1,
        1,
        1,
        1,
        1,
        1,
        1,
        1,
        1,
        1,
        1,
        1,
        1,
        1,
        1,
        1,
        1,
        1,
        1,
        1,
        1,
        2,
        2,
        1,
        1,
        1,
        1,
        1,
        2,
        1,
        1,
        1,
        1,
        1,
        1,
        1,
        1,
        1,
        2,
        1,
        2,
        1,
        1,
        1,
        1,
        1,
        1,
        1,
        1,
        1,
        1,
        2,
        2,
        1,
        1,
        1,
        1,
        1,
        1,
        1,
        1,
        1,
        1,
        1,
        1,
        1,
        1,
        1,
        1,
        1,
        2,
        1,
        1,
        1,
        1,
        1,
        1,
        1,
        1,
        1,
        1,
        2,
        2,
        1,
        1,
        1,
        1,
        1,
        1,
        1,
        1,
        1,
        1,
        1,
        1,
        1,
        1,
        1,
        1,
        1,
        1,
        1,
        1,
        1,
        1,
        1,
        1,
        1,
        1,
        1,
        1,
        2,
        2,
        2,
        2,
        2,
        2,
        2,
        2,
        2,
        2,
        2,
        2,
        2,
        2,
        2,
        2,
        2,
        2,
        2,
        2,
        2,
        2,
        2,
        2,
        2,
        2,
        2,
        2,
        2,
        2,
        2
      ]
    },
    {
      "id": 2,
      "type": "objectgroup",
      "name": "Objects",
      "opacity": 1,
      "visible": true,
      "x": 0,
      "y": 0,
      "draworder": "topdown",
      "objects": [
        {
          "id": 1,
          "name": "",
          "type": "player",
          "x": 40,
          "y": 40,
          "width": 0,
          "height": 0,
          "point": true,
          "rotation": 0,
          "visible": true
        },
        {
          "id": 2,
          "name": "",
          "type": "pickup",
          "x": 440,
          "y": 40,
          "width": 0,
          "height": 0,
          "point": true,
          "rotation": 0,
          "visible": true,
          "properties": [
            {
              "name": "kind",
              "type": "string",
              "value": "gem"
            }
          ]
        },
        {
          "id": 3,
          "name": "",
          "type": "pickup",
          "x": 120,
          "y": 88,
          "width": 0,
          "height": 0,
          "point": true,
          "rotation": 0,
          "visible": true,
          "properties": [
            {
              "name": "kind",
              "type": "string",
              "value": "gem"
            }
          ]
        },
        {
          "id": 4,
          "name": "",
          "type": "enemy",
          "x": 184,
          "y": 88,
          "width": 0,
          "height": 0,
          "point": true,
          "rotation": 0,
          "visible": true,
          "properties": [
            {
              "name": "kind",
              "type": "string",
              "value": "walker"
            }
          ]
        },
        {
          "id": 5,
          "name": "",
          "type": "pickup",
          "x": 376,
          "y": 104,
          "width": 0,
          "height": 0,
          "point": true,
          "rotation": 0,
          "visible": true,
          "properties": [
            {
              "name": "kind",
              "type": "string",
              "value": "gem"
            }
          ]
        },
        {
          "id": 6,
          "name": "",
          "type": "enemy",
          "x": 376,
          "y": 120,
          "width": 0,
          "height": 0,
          "point": true,
          "rotation": 0,
          "visible": true,
          "properties": [
            {
              "name": "kind",
              "type": "string",
              "value": "walker"
            }
          ]
        },
        {
          "id": 7,
          "name": "",
          "type": "pickup",
          "x": 40,
          "y": 152,
          "width": 0,
          "height": 0,
          "point": true,
          "rotation": 0,
          "visible": true,
          "properties": [
            {
              "name": "kind",
              "type": "string",
              "value": "gem"
            }
          ]
        },
        {
          "id": 8,
          "name": "",
          "type": "enemy",
          "x": 248,
          "y": 152,
          "width": 0,
          "height": 0,
          "point": true,
          "rotation": 0,
          "visible": true,
          "properties": [
            {
              "name": "kind",
              "type": "string",
              "value": "walker"
            }
          ]
        },
        {
          "id": 9,
          "name": "",
          "type": "pickup",
          "x": 264,
          "y": 184,
          "width": 0,
          "height": 0,
          "point": true,
          "rotation": 0,
          "visible": true,
          "properties": [
            {
              "name": "kind",
              "type": "string",
              "value": "gem"
            }
          ]
        },
        {
          "id": 10,
          "name": "",
          "type": "pickup",
          "x": 440,
          "y": 184,
          "width": 0,
          "height": 0,
          "point": true,
          "rotation": 0,
          "visible": true,
          "properties": [
            {
              "name": "kind",
              "type": "string",
              "value": "gem"
            }
          ]
        },
        {
          "id": 11,
          "name": "",
          "type": "enemy",
          "x": 152,
          "y": 248,
          "width": 0,
          "height": 0,
          "point": true,
          "rotation": 0,
          "visible": true,
          "properties": [
            {
              "name": "kind",
              "type": "string",
              "value": "walker"
            }
          ]
        },
        {
          "id": 12,
          "name": "",
          "type": "pickup",
          "x": 56,
          "y": 264,
          "width": 0,
          "height": 0,
          "point": true,
          "rotation": 0,
          "visible": true,
          "properties": [
            {
              "name": "kind",
              "type": "string",
              "value": "gem"
            }
          ]
        },
        {
          "id": 13,
          "name": "",
          "type": "enemy",
          "x": 344,
          "y": 264,
          "width": 0,
          "height": 0,
          "point": true,
          "rotation": 0,
          "visible": true,
          "properties": [
            {
              "name": "kind",
              "type": "string",
              "value": "walker"
            }
          ]
        },
        {
          "id": 14,
          "name": "",
          "type": "pickup",
          "x": 184,
          "y": 280,
          "width": 0,
          "height": 0,
          "point": true,
          "rotation": 0,
          "visible": true,
          "properties": [
            {
              "name": "kind",
              "type": "string",
              "value": "gem"
            }
          ]
        },
        {
          "id": 15,
          "name": "",
          "type": "goal",
          "x": 440,
          "y": 280,
          "width": 0,
          "height": 0,
          "point": true,
          "rotation": 0,
          "visible": true
        }
      ]
    }
  ]
}