{
  "type": "map",
  "version": "1.10",
  "tiledversion": "1.10.2",
  "orientation": "orthogonal",
  "renderorder": "right-down",
  "infinite": false,
  "width": 132,
  "height": 14,
  "tilewidth": 16,
  "tileheight": 16,
  "nextlayerid": 3,
  "nextobjectid": 53,
  "properties": [
    {
      "name": "groundTop",
      "type": "int",
      "value": 12
    }
  ],
  "tilesets": [
    {
      "firstgid": 1,
      "name": "forge",
      "tilewidth": 16,
      "tileheight": 16,
      "tilecount": 3,
      "columns": 3,
      "margin": 0,
      "spacing": 0,
      "image": "forge-tileset.png",
      "imagewidth": 48,
      "imageheight": 16,
      "tiles": [
        {
          "id": 0,
          "properties": [
            {
              "name": "collides",
              "type": "bool",
              "value": true
            }
          ]
        },
        {
          "id": 1,
          "properties": [
            {
              "name": "collides",
              "type": "bool",
              "value": true
            }
          ]
        },
        {
          "id": 2,
          "properties": [
            {
              "name": "collides",
              "type": "bool",
              "value": true
            }
          ]
        }
      ]
    }
  ],
  "layers": [
    {
      "id": 1,
      "type": "tilelayer",
      "name": "Ground",
      "x": 0,
      "y": 0,
      "width": 132,
      "height": 14,
      "opacity": 1,
      "visible": true,
      "data": [
        0,
        0,
        0,
        0,
        0,
        0,
        0,
        0,
        0,
        0,
        0,
        0,
        0,
        0,
        0,
        0,
        0,
        0,
        0,
        0,
        0,
        0,
        0,
        0,
        0,
        0,
        0,
        0,
        0,
        0,
        0,
        0,
        0,
        0,
        0,
        0,
        0,
        0,
        0,
        0,
        0,
        0,
        0,
        0,
        0,
        0,
        0,
        0,
        0,
        0,
        0,
        0,
        0,
        0,
        0,
        0,
        0,
        0,
        0,
        0,
        0,
        0,
        0,
        0,
        0,
        0,
        0,
        0,
        0,
        0,
        0,
        0,
        0,
        0,
        0,
        0,
        0,
        0,
        0,
        0,
        0,
        0,
        0,
        0,
        0,
        0,
        0,
        0,
        0,
        0,
        0,
        0,
        0,
        0,
        0,
        0,
        0,
        0,
        0,
        0,
        0,
        0,
        0,
        0,
        0,
        0,
        0,
        0,
        0,
        0,
        0,
        0,
        0,
        0,
        0,
        0,
        0,
        0,
        0,
        0,
        0,
        0,
        0,
        0,
        0,
        0,
        0,
        0,
        0,
        0,
        0,
        0,
        0,
        0,
        0,
        0,
        0,
        0,
        0,
        0,
        0,
        0,
        0,
        0,
        0,
        0,
        0,
        0,
        0,
        0,
        0,
        0,
        0,
        0,
        0,
        0,
        0,
        0,
        0,
        0,
        0,
        0,
        0,
        0,
        0,
        0,
        0,
        0,
        0,
        0,
        0,
        0,
        0,
        0,
        0,
        0,
        0,
        0,
        0,
        0,
        0,
        0,
        0,
        0,
        0,
        0,
        0,
        0,
        0,
        0,
        0,
        0,
        0,
        0,
        0,
        0,
        0,
        0,
        0,
        0,
        0,
        0,
        0,
        0,
        0,
        0,
        0,
        0,
        0,
        0,
        0,
        0,
        0,
        0,
        0,
        0,
        0,
        0,
        0,
        0,
        0,
        0,
        0,
        0,
        0,
        0,
        0,
        0,
        0,
        0,
        0,
        0,
        0,
        0,
        0,
        0,
        0,
        0,
        0,
        0,
        0,
        0,
        0,
        0,
        0,
        0,
        0,
        0,
        0,
        0,
        0,
        0,
        0,
        0,
        0,
        0,
        0,
        0,
        0,
        0,
        0,
        0,
        0,
        0,
        0,
        0,
        0,
        0,
        0,
        0,
        0,
        0,
        0,
        0,
        0,
        0,
        0,
        0,
        0,
        0,
        0,
        0,
        0,
        0,
        0,
        0,
        0,
        0,
        0,
        0,
        0,
        0,
        0,
        0,
        0,
        0,
        0,
        0,
        0,
        0,
        0,
        0,
        0,
        0,
        0,
        0,
        0,
        0,
        0,
        0,
        0,
        0,
        0,
        0,
        0,
        0,
        0,
        0,
        0,
        0,
        0,
        0,
        0,
        0,
        0,
        0,
        0,
        0,
        0,
        0,
        0,
        0,
        0,
        0,
        0,
        0,
        0,
        0,
        0,
        0,
        0,
        0,
        0,
        0,
        0,
        0,
        0,
        0,
        0,
        0,
        0,
        0,
        0,
        0,
        0,
        0,
        0,
        0,
        0,
        0,
        0,
        0,
        0,
        0,
        0,
        0,
        0,
        0,
        0,
        0,
        0,
        0,
        0,
        0,
        0,
        0,
        0,
        0,
        0,
        0,
        0,
        0,
        0,
        0,
        0,
        0,
        0,
        0,
        0,
        0,
        0,
        0,
        0,
        0,
        0,
        0,
        0,
        0,
        0,
        0,
        0,
        0,
        0,
        0,
        0,
        0,
        0,
        0,
        0,
        0,
        0,
        0,
        0,
        0,
        0,
        0,
        0,
        0,
        0,
        0,
        0,
        0,
        0,
        0,
        0,
        0,
        0,
        0,
        0,
        0,
        0,
        0,
        0,
        0,
        0,
        0,
        0,
        0,
        0,
        0,
        0,
        0,
        0,
        0,
        0,
        0,
        0,
        0,
        0,
        0,
        0,
        0,
        0,
        0,
        0,
        0,
        0,
        0,
        0,
        0,
        0,
        0,
        0,
        0,
        0,
        0,
        0,
        0,
        0,
        0,
        0,
        0,
        0,
        0,
        0,
        0,
        0,
        0,
        0,
        0,
        0,
        0,
        0,
        0,
        0,
        0,
        0,
        0,
        0,
        0,
        0,
        0,
        0,
        0,
        0,
        0,
        0,
        0,
        0,
        0,
        0,
        0,
        0,
        0,
        0,
        0,
        0,
        0,
        0,
        0,
        0,
        0,
        0,
        0,
        0,
        0,
        0,
        0,
        0,
        0,
        0,
        0,
        0,
        0,
        0,
        0,
        0,
        0,
        0,
        0,
        0,
        0,
        0,
        0,
        0,
        0,
        0,
        0,
        0,
        0,
        0,
        0,
        0,
        0,
        0,
        0,
        0,
        0,
        0,
        0,
        0,
        0,
        0,
        0,
        0,
        0,
        0,
        0,
        0,
        0,
        0,
        0,
        0,
        0,
        0,
        0,
        0,
        0,
        0,
        0,
        0,
        0,
        0,
        0,
        0,
        0,
        0,
        0,
        0,
        0,
        0,
        0,
        0,
        0,
        0,
        0,
        0,
        0,
        0,
        0,
        0,
        0,
        0,
        0,
        0,
        0,
        0,
        0,
        0,
        0,
        0,
        0,
        0,
        0,
        0,
        0,
        0,
        0,
        0,
        0,
        0,
        0,
        0,
        0,
        0,
        0,
        0,
        0,
        0,
        0,
        0,
        0,
        0,
        0,
        0,
        0,
        0,
        0,
        0,
        0,
        0,
        0,
        0,
        0,
        0,
        0,
        0,
        0,
        0,
        0,
        0,
        0,
        0,
        0,
        0,
        0,
        0,
        0,
        0,
        0,
        0,
        0,
        0,
        0,
        0,
        0,
        0,
        0,
        0,
        0,
        0,
        0,
        0,
        0,
        0,
        0,
        0,
        0,
        0,
        0,
        0,
        0,
        0,
        0,
        0,
        0,
        0,
        0,
        0,
        0,
        0,
        0,
        0,
        0,
        0,
        0,
        0,
        0,
        0,
        0,
        0,
        0,
        0,
        0,
        0,
        0,
        0,
        0,
        0,
        0,
        0,
        0,
        0,
        0,
        0,
        0,
        0,
        0,
        0,
        0,
        0,
        0,
        0,
        0,
        0,
        0,
        0,
        0,
        0,
        0,
        0,
        0,
        0,
        0,
        0,
        0,
        0,
        0,
        0,
        0,
        0,
        0,
        0,
        0,
        0,
        0,
        0,
        0,
        0,
        0,
        0,
        0,
        0,
        0,
        0,
        0,
        0,
        0,
        0,
        0,
        0,
        0,
        0,
        0,
        0,
        0,
        0,
        0,
        0,
        0,
        0,
        0,
        0,
        0,
        0,
        0,
        0,
        0,
        0,
        0,
        0,
        0,
        0,
        0,
        0,
        0,
        0,
        0,
        0,
        0,
        0,
        0,
        0,
        0,
        0,
        0,
        0,
        0,
        0,
        0,
        0,
        0,
        0,
        0,
        0,
        0,
        0,
        0,
        0,
        0,
        0,
        0,
        0,
        0,
        0,
        0,
        0,
        0,
        0,
        0,
        0,
        0,
        0,
        0,
        0,
        0,
        0,
        0,
        0,
        0,
        0,
        0,
        0,
        0,
        0,
        0,
        0,
        0,
        0,
        0,
        0,
        0,
        0,
        0,
        0,
        0,
        0,
        0,
        0,
        0,
        0,
        0,
        0,
        0,
        0,
        0,
        0,
        0,
        0,
        0,
        0,
        0,
        0,
        0,
        0,
        0,
        0,
        0,
        0,
        0,
        0,
        0,
        0,
        0,
        0,
        0,
        0,
        0,
        0,
        0,
        0,
        0,
        0,
        0,
        0,
        0,
        0,
        0,
        0,
        0,
        0,
        0,
        0,
        0,
        0,
        0,
        0,
        0,
        0,
        0,
        0,
        0,
        0,
        0,
        0,
        0,
        0,
        0,
        0,
        0,
        0,
        0,
        0,
        0,
        0,
        0,
        0,
        0,
        0,
        0,
        0,
        0,
        0,
        0,
        0,
        0,
        0,
        0,
        0,
        0,
        0,
        0,
        0,
        0,
        0,
        0,
        0,
        0,
        0,
        0,
        0,
        0,
        0,
        0,
        0,
        0,
        0,
        0,
        0,
        0,
        0,
        0,
        0,
        0,
        0,
        0,
        0,
        0,
        0,
        0,
        0,
        0,
        0,
        0,
        0,
        0,
        0,
        0,
        0,
        0,
        0,
        0,
        0,
        0,
        0,
        0,
        0,
        0,
        0,
        0,
        0,
        0,
        0,
        0,
        0,
        0,
        0,
        0,
        0,
        0,
        0,
        0,
        0,
        0,
        0,
        0,
        0,
        0,
        0,
        0,
        0,
        0,
        0,
        0,
        0,
        0,
        0,
        0,
        0,
        0,
        0,
        0,
        0,
        3,
        0,
        0,
        0,
        0,
        0,
        0,
        0,
        0,
        0,
        0,
        0,
        0,
        0,
        0,
        0,
        0,
        0,
        0,
        0,
        0,
        0,
        0,
        0,
        0,
        0,
        0,
        0,
        0,
        0,
        0,
        0,
        0,
        0,
        0,
        0,
        0,
        0,
        0,
        0,
        0,
        0,
        0,
        0,
        0,
        0,
        0,
        0,
        0,
        0,
        0,
        0,
        0,
        0,
        0,
        0,
        0,
        0,
        0,
        0,
        0,
        0,
        0,
        0,
        0,
        0,
        0,
        0,
        0,
        0,
        0,
        0,
        0,
        0,
        0,
        0,
        0,
        0,
        0,
        0,
        0,
        0,
        0,
        0,
        0,
        0,
        0,
        0,
        0,
        0,
        0,
        0,
        0,
        0,
        0,
        3,
        0,
        0,
        0,
        0,
        0,
        0,
        0,
        0,
        0,
        0,
        0,
        0,
        0,
        0,
        0,
        0,
        0,
        0,
        0,
        0,
        0,
        0,
        0,
        0,
        0,
        0,
        0,
        0,
        0,
        0,
        0,
        0,
        0,
        0,
        0,
        3,
        3,
        0,
        0,
        0,
        0,
        0,
        0,
        0,
        0,
        0,
        0,
        0,
        0,
        0,
        0,
        0,
        0,
        0,
        0,
        0,
        0,
        0,
        0,
        0,
        0,
        0,
        0,
        0,
        0,
        0,
        0,
        0,
        0,
        0,
        0,
        0,
        0,
        3,
        0,
        0,
        0,
        0,
        0,
        0,
        0,
        0,
        0,
        0,
        0,
        0,
        0,
        0,
        0,
        0,
        0,
        0,
        0,
        0,
        0,
        0,
        0,
        0,
        0,
        0,
        0,
        0,
        0,
        0,
        0,
        0,
        0,
        0,
        0,
        0,
        0,
        0,
        0,
        0,
        0,
        0,
        0,
        0,
        0,
        0,
        0,
        0,
        0,
        0,
        0,
        0,
        0,
        0,
        0,
        0,
        3,
        3,
        0,
        0,
        0,
        0,
        0,
        0,
        0,
        0,
        0,
        0,
        0,
        0,
        0,
        0,
        0,
        0,
        0,
        0,
        0,
        0,
        0,
        0,
        0,
        0,
        0,
        0,
        0,
        0,
        0,
        0,
        0,
        0,
        0,
        0,
        3,
        3,
        3,
        0,
        0,
        0,
        0,
        0,
        0,
        0,
        0,
        0,
        0,
        0,
        0,
        0,
        0,
        0,
        0,
        0,
        0,
        0,
        0,
        0,
        0,
        0,
        0,
        0,
        0,
        0,
        0,
        0,
        0,
        0,
        0,
        0,
        0,
        0,
        3,
        3,
        0,
        0,
        0,
        0,
        0,
        0,
        0,
        0,
        0,
        0,
        0,
        0,
        0,
        0,
        0,
        0,
        0,
        0,
        0,
        0,
        0,
        0,
        0,
        0,
        0,
        0,
        0,
        0,
        0,
        0,
        0,
        0,
        0,
        0,
        0,
        0,
        0,
        0,
        0,
        0,
        0,
        0,
        0,
        0,
        0,
        0,
        0,
        0,
        0,
        0,
        0,
        0,
        0,
        0,
        0,
        3,
        3,
        3,
        0,
        0,
        0,
        0,
        0,
        0,
        0,
        0,
        0,
        0,
        0,
        0,
        0,
        0,
        0,
        0,
        0,
        0,
        0,
        0,
        0,
        0,
        0,
        0,
        0,
        0,
        0,
        0,
        0,
        0,
        0,
        0,
        0,
        3,
        3,
        3,
        3,
        0,
        0,
        0,
        0,
        0,
        0,
        0,
        0,
        0,
        0,
        0,
        0,
        0,
        0,
        0,
        0,
        0,
        0,
        0,
        0,
        0,
        0,
        0,
        0,
        0,
        0,
        0,
        0,
        0,
        0,
        0,
        0,
        0,
        0,
        3,
        3,
        3,
        0,
        0,
        0,
        0,
        0,
        0,
        0,
        0,
        0,
        0,
        0,
        0,
        0,
        0,
        0,
        0,
        0,
        0,
        0,
        0,
        0,
        0,
        0,
        0,
        0,
        0,
        0,
        0,
        0,
        0,
        0,
        0,
        0,
        0,
        0,
        0,
        0,
        0,
        0,
        0,
        0,
        0,
        0,
        0,
        0,
        0,
        0,
        0,
        0,
        0,
        0,
        0,
        0,
        0,
        3,
        3,
        3,
        3,
        0,
        0,
        0,
        0,
        0,
        0,
        0,
        0,
        0,
        0,
        0,
        0,
        0,
        0,
        0,
        0,
        0,
        0,
        0,
        0,
        0,
        0,
        0,
        0,
        0,
        0,
        0,
        0,
        0,
        0,
        0,
        0,
        3,
        3,
        3,
        3,
        3,
        0,
        0,
        0,
        0,
        0,
        0,
        0,
        0,
        0,
        0,
        0,
        0,
        0,
        0,
        0,
        0,
        0,
        0,
        0,
        0,
        0,
        0,
        0,
        0,
        0,
        0,
        0,
        0,
        0,
        0,
        0,
        0,
        0,
        3,
        3,
        3,
        3,
        0,
        0,
        0,
        0,
        0,
        0,
        0,
        0,
        0,
        0,
        0,
        0,
        0,
        0,
        0,
        1,
        1,
        1,
        1,
        1,
        1,
        1,
        1,
        1,
        1,
        1,
        1,
        1,
        1,
        1,
        1,
        1,
        1,
        1,
        1,
        1,
        1,
        1,
        1,
        1,
        1,
        1,
        0,
        0,
        0,
        1,
        1,
        1,
        1,
        1,
        1,
        1,
        1,
        1,
        1,
        1,
        1,
        1,
        1,
        1,
        1,
        1,
        1,
        1,
        1,
        1,
        1,
        1,
        1,
        1,
        1,
        1,
        1,
        0,
        0,
        0,
        1,
        1,
        1,
        1,
        1,
        1,
        1,
        1,
        1,
        1,
        1,
        1,
        1,
        1,
        1,
        1,
        1,
        1,
        1,
        1,
        1,
        1,
        1,
        1,
        1,
        1,
        1,
        0,
        0,
        0,
        1,
        1,
        1,
        1,
        1,
        1,
        1,
        1,
        1,
        1,
        1,
        1,
        1,
        0,
        0,
        1,
        1,
        1,
        1,
        1,
        1,
        1,
        1,
        1,
        1,
        1,
        1,
        1,
        1,
        1,
        1,
        1,
        1,
        1,
        1,
        1,
        1,
        1,
        1,
        1,
        1,
        2,
        2,
        2,
        2,
        2,
        2,
        2,
        2,
        2,
        2,
        2,
        2,
        2,
        2,
        2,
        2,
        2,
        2,
        2,
        2,
        2,
        2,
        2,
        2,
        2,
        2,
        2,
        0,
        0,
        0,
        2,
        2,
        2,
        2,
        2,
        2,
        2,
        2,
        2,
        2,
        2,
        2,
        2,
        2,
        2,
        2,
        2,
        2,
        2,
        2,
        2,
        2,
        2,
        2,
        2,
        2,
        2,
        2,
        0,
        0,
        0,
        2,
        2,
        2,
        2,
        2,
        2,
        2,
        2,
        2,
        2,
        2,
        2,
        2,
        2,
        2,
        2,
        2,
        2,
        2,
        2,
        2,
        2,
        2,
        2,
        2,
        2,
        2,
        0,
        0,
        0,
        2,
        2,
        2,
        2,
        2,
        2,
        2,
        2,
        2,
        2,
        2,
        2,
        2,
        0,
        0,
        2,
        2,
        2,
        2,
        2,
        2,
        2,
        2,
        2,
        2,
        2,
        2,
        2,
        2,
        2,
        2,
        2,
        2,
        2,
        2,
        2,
        2,
        2,
        2,
        2,
        2
      ]
    },
    {
      "id": 2,
      "type": "objectgroup",
      "name": "Objects",
      "opacity": 1,
      "visible": true,
      "x": 0,
      "y": 0,
      "draworder": "topdown",
      "objects": [
        {
          "id": 1,
          "name": "",
          "type": "player",
          "x": 40,
          "y": 184,
          "width": 0,
          "height": 0,
          "point": true,
          "rotation": 0,
          "visible": true
        },
        {
          "id": 2,
          "name": "",
          "type": "block",
          "x": 136,
          "y": 152,
          "width": 0,
          "height": 0,
          "point": true,
          "rotation": 0,
          "visible": true,
          "properties": [
            {
              "name": "kind",
              "type": "string",
              "value": "coin"
            }
          ]
        },
        {
          "id": 3,
          "name": "",
          "type": "coin",
          "x": 104,
          "y": 152,
          "width": 0,
          "height": 0,
          "point": true,
          "rotation": 0,
          "visible": true
        },
        {
          "id": 4,
          "name": "",
          "type": "coin",
          "x": 168,
          "y": 152,
          "width": 0,
          "height": 0,
          "point": true,
          "rotation": 0,
          "visible": true
        },
        {
          "id": 5,
          "name": "",
          "type": "block",
          "x": 232,
          "y": 152,
          "width": 0,
          "height": 0,
          "point": true,
          "rotation": 0,
          "visible": true,
          "properties": [
            {
              "name": "kind",
              "type": "string",
              "value": "brick"
            }
          ]
        },
        {
          "id": 6,
          "name": "",
          "type": "block",
          "x": 248,
          "y": 152,
          "width": 0,
          "height": 0,
          "point": true,
          "rotation": 0,
          "visible": true,
          "properties": [
            {
              "name": "kind",
              "type": "string",
              "value": "coin"
            }
          ]
        },
        {
          "id": 7,
          "name": "",
          "type": "block",
          "x": 264,
          "y": 152,
          "width": 0,
          "height": 0,
          "point": true,
          "rotation": 0,
          "visible": true,
          "properties": [
            {
              "name": "kind",
              "type": "string",
              "value": "brick"
            }
          ]
        },
        {
          "id": 8,
          "name": "",
          "type": "block",
          "x": 280,
          "y": 152,
          "width": 0,
          "height": 0,
          "point": true,
          "rotation": 0,
          "visible": true,
          "properties": [
            {
              "name": "kind",
              "type": "string",
              "value": "mushroom"
            }
          ]
        },
        {
          "id": 9,
          "name": "",
          "type": "block",
          "x": 296,
          "y": 152,
          "width": 0,
          "height": 0,
          "point": true,
          "rotation": 0,
          "visible": true,
          "properties": [
            {
              "name": "kind",
              "type": "string",
              "value": "brick"
            }
          ]
        },
        {
          "id": 10,
          "name": "",
          "type": "coin",
          "x": 248,
          "y": 104,
          "width": 0,
          "height": 0,
          "point": true,
          "rotation": 0,
          "visible": true
        },
        {
          "id": 11,
          "name": "",
          "type": "coin",
          "x": 264,
          "y": 104,
          "width": 0,
          "height": 0,
          "point": true,
          "rotation": 0,
          "visible": true
        },
        {
          "id": 12,
          "name": "",
          "type": "coin",
          "x": 280,
          "y": 104,
          "width": 0,
          "height": 0,
          "point": true,
          "rotation": 0,
          "visible": true
        },
        {
          "id": 13,
          "name": "",
          "type": "enemy",
          "x": 344,
          "y": 184,
          "width": 0,
          "height": 0,
          "point": true,
          "rotation": 0,
          "visible": true,
          "properties": [
            {
              "name": "kind",
              "type": "string",
              "value": "slime"
            }
          ]
        },
        {
          "id": 14,
          "name": "",
          "type": "coin",
          "x": 440,
          "y": 136,
          "width": 0,
          "height": 0,
          "point": true,
          "rotation": 0,
          "visible": true
        },
        {
          "id": 15,
          "name": "",
          "type": "coin",
          "x": 456,
          "y": 120,
          "width": 0,
          "height": 0,
          "point": true,
          "rotation": 0,
          "visible": true
        },
        {
          "id": 16,
          "name": "",
          "type": "coin",
          "x": 472,
          "y": 136,
          "width": 0,
          "height": 0,
          "point": true,
          "rotation": 0,
          "visible": true
        },
        {
          "id": 17,
          "name": "",
          "type": "enemy",
          "x": 552,
          "y": 184,
          "width": 0,
          "height": 0,
          "point": true,
          "rotation": 0,
          "visible": true,
          "properties": [
            {
              "name": "kind",
              "type": "string",
              "value": "slime"
            }
          ]
        },
        {
          "id": 18,
          "name": "",
          "type": "enemy",
          "x": 584,
          "y": 184,
          "width": 0,
          "height": 0,
          "point": true,
          "rotation": 0,
          "visible": true,
          "properties": [
            {
              "name": "kind",
              "type": "string",
              "value": "slime"
            }
          ]
        },
        {
          "id": 19,
          "name": "",
          "type": "block",
          "x": 728,
          "y": 104,
          "width": 0,
          "height": 0,
          "point": true,
          "rotation": 0,
          "visible": true,
          "properties": [
            {
              "name": "kind",
              "type": "string",
              "value": "brick"
            }
          ]
        },
        {
          "id": 20,
          "name": "",
          "type": "block",
          "x": 744,
          "y": 104,
          "width": 0,
          "height": 0,
          "point": true,
          "rotation": 0,
          "visible": true,
          "properties": [
            {
              "name": "kind",
              "type": "string",
              "value": "brick"
            }
          ]
        },
        {
          "id": 21,
          "name": "",
          "type": "block",
          "x": 760,
          "y": 104,
          "width": 0,
          "height": 0,
          "point": true,
          "rotation": 0,
          "visible": true,
          "properties": [
            {
              "name": "kind",
              "type": "string",
              "value": "mushroom"
            }
          ]
        },
        {
          "id": 22,
          "name": "",
          "type": "block",
          "x": 776,
          "y": 104,
          "width": 0,
          "height": 0,
          "point": true,
          "rotation": 0,
          "visible": true,
          "properties": [
            {
              "name": "kind",
              "type": "string",
              "value": "brick"
            }
          ]
        },
        {
          "id": 23,
          "name": "",
          "type": "block",
          "x": 792,
          "y": 104,
          "width": 0,
          "height": 0,
          "point": true,
          "rotation": 0,
          "visible": true,
          "properties": [
            {
              "name": "kind",
              "type": "string",
              "value": "brick"
            }
          ]
        },
        {
          "id": 24,
          "name": "",
          "type": "coin",
          "x": 744,
          "y": 72,
          "width": 0,
          "height": 0,
          "point": true,
          "rotation": 0,
          "visible": true
        },
        {
          "id": 25,
          "name": "",
          "type": "coin",
          "x": 760,
          "y": 72,
          "width": 0,
          "height": 0,
          "point": true,
          "rotation": 0,
          "visible": true
        },
        {
          "id": 26,
          "name": "",
          "type": "coin",
          "x": 776,
          "y": 72,
          "width": 0,
          "height": 0,
          "point": true,
          "rotation": 0,
          "visible": true
        },
        {
          "id": 27,
          "name": "",
          "type": "enemy",
          "x": 760,
          "y": 88,
          "width": 0,
          "height": 0,
          "point": true,
          "rotation": 0,
          "visible": true,
          "properties": [
            {
              "name": "kind",
              "type": "string",
              "value": "slime"
            }
          ]
        },
        {
          "id": 28,
          "name": "",
          "type": "coin",
          "x": 920,
          "y": 136,
          "width": 0,
          "height": 0,
          "point": true,
          "rotation": 0,
          "visible": true
        },
        {
          "id": 29,
          "name": "",
          "type": "coin",
          "x": 952,
          "y": 120,
          "width": 0,
          "height": 0,
          "point": true,
          "rotation": 0,
          "visible": true
        },
        {
          "id": 30,
          "name": "",
          "type": "coin",
          "x": 984,
          "y": 136,
          "width": 0,
          "height": 0,
          "point": true,
          "rotation": 0,
          "visible": true
        },
        {
          "id": 31,
          "name": "",
          "type": "enemy",
          "x": 1064,
          "y": 184,
          "width": 0,
          "height": 0,
          "point": true,
          "rotation": 0,
          "visible": true,
          "properties": [
            {
              "name": "kind",
              "type": "string",
              "value": "slime"
            }
          ]
        },
        {
          "id": 32,
          "name": "",
          "type": "enemy",
          "x": 1096,
          "y": 184,
          "width": 0,
          "height": 0,
          "point": true,
          "rotation": 0,
          "visible": true,
          "properties": [
            {
              "name": "kind",
              "type": "string",
              "value": "slime"
            }
          ]
        },
        {
          "id": 33,
          "name": "",
          "type": "block",
          "x": 1128,
          "y": 152,
          "width": 0,
          "height": 0,
          "point": true,
          "rotation": 0,
          "visible": true,
          "properties": [
            {
              "name": "kind",
              "type": "string",
              "value": "coin"
            }
          ]
        },
        {
          "id": 34,
          "name": "",
          "type": "block",
          "x": 1144,
          "y": 152,
          "width": 0,
          "height": 0,
          "point": true,
          "rotation": 0,
          "visible": true,
          "properties": [
            {
              "name": "kind",
              "type": "string",
              "value": "coin"
            }
          ]
        },
        {
          "id": 35,
          "name": "",
          "type": "block",
          "x": 1160,
          "y": 152,
          "width": 0,
          "height": 0,
          "point": true,
          "rotation": 0,
          "visible": true,
          "properties": [
            {
              "name": "kind",
              "type": "string",
              "value": "coin"
            }
          ]
        },
        {
          "id": 36,
          "name": "",
          "type": "coin",
          "x": 1320,
          "y": 104,
          "width": 0,
          "height": 0,
          "point": true,
          "rotation": 0,
          "visible": true
        },
        {
          "id": 37,
          "name": "",
          "type": "coin",
          "x": 1336,
          "y": 104,
          "width": 0,
          "height": 0,
          "point": true,
          "rotation": 0,
          "visible": true
        },
        {
          "id": 38,
          "name": "",
          "type": "coin",
          "x": 1352,
          "y": 104,
          "width": 0,
          "height": 0,
          "point": true,
          "rotation": 0,
          "visible": true
        },
        {
          "id": 39,
          "name": "",
          "type": "coin",
          "x": 1400,
          "y": 136,
          "width": 0,
          "height": 0,
          "point": true,
          "rotation": 0,
          "visible": true
        },
        {
          "id": 40,
          "name": "",
          "type": "coin",
          "x": 1432,
          "y": 104,
          "width": 0,
          "height": 0,
          "point": true,
          "rotation": 0,
          "visible": true
        },
        {
          "id": 41,
          "name": "",
          "type": "coin",
          "x": 1464,
          "y": 136,
          "width": 0,
          "height": 0,
          "point": true,
          "rotation": 0,
          "visible": true
        },
        {
          "id": 42,
          "name": "",
          "type": "block",
          "x": 1528,
          "y": 152,
          "width": 0,
          "height": 0,
          "point": true,
          "rotation": 0,
          "visible": true,
          "properties": [
            {
              "name": "kind",
              "type": "string",
              "value": "brick"
            }
          ]
        },
        {
          "id": 43,
          "name": "",
          "type": "block",
          "x": 1544,
          "y": 152,
          "width": 0,
          "height": 0,
          "point": true,
          "rotation": 0,
          "visible": true,
          "properties": [
            {
              "name": "kind",
              "type": "string",
              "value": "coin"
            }
          ]
        },
        {
          "id": 44,
          "name": "",
          "type": "block",
          "x": 1560,
          "y": 152,
          "width": 0,
          "height": 0,
          "point": true,
          "rotation": 0,
          "visible": true,
          "properties": [
            {
              "name": "kind",
              "type": "string",
              "value": "brick"
            }
          ]
        },
        {
          "id": 45,
          "name": "",
          "type": "enemy",
          "x": 1592,
          "y": 184,
          "width": 0,
          "height": 0,
          "point": true,
          "rotation": 0,
          "visible": true,
          "properties": [
            {
              "name": "kind",
              "type": "string",
              "value": "slime"
            }
          ]
        },
        {
          "id": 46,
          "name": "",
          "type": "enemy",
          "x": 1624,
          "y": 184,
          "width": 0,
          "height": 0,
          "point": true,
          "rotation": 0,
          "visible": true,
          "properties": [
            {
              "name": "kind",
              "type": "string",
              "value": "slime"
            }
          ]
        },
        {
          "id": 47,
          "name": "",
          "type": "coin",
          "x": 1736,
          "y": 152,
          "width": 0,
          "height": 0,
          "point": true,
          "rotation": 0,
          "visible": true
        },
        {
          "id": 48,
          "name": "",
          "type": "coin",
          "x": 1752,
          "y": 152,
          "width": 0,
          "height": 0,
          "point": true,
          "rotation": 0,
          "visible": true
        },
        {
          "id": 49,
          "name": "",
          "type": "coin",
          "x": 1768,
          "y": 152,
          "width": 0,
          "height": 0,
          "point": true,
          "rotation": 0,
          "visible": true
        },
        {
          "id": 50,
          "name": "",
          "type": "pipe",
          "x": 368,
          "y": 160,
          "width": 0,
          "height": 0,
          "point": true,
          "rotation": 0,
          "visible": true,
          "properties": [
            {
              "name": "height",
              "type": "int",
              "value": 2
            }
          ]
        },
        {
          "id": 51,
          "name": "",
          "type": "pipe",
          "x": 864,
          "y": 128,
          "width": 0,
          "height": 0,
          "point": true,
          "rotation": 0,
          "visible": true,
          "properties": [
            {
              "name": "height",
              "type": "int",
              "value": 4
            }
          ]
        },
        {
          "id": 52,
          "name": "",
          "type": "goal",
          "x": 1984,
          "y": 192,
          "width": 0,
          "height": 0,
          "point": true,
          "rotation": 0,
          "visible": true
        }
      ]
    }
  ]
}