{
  "type": "map",
  "version": "1.10",
  "tiledversion": "1.10.2",
  "orientation": "isometric",
  "renderorder": "right-down",
  "infinite": false,
  "width": 14,
  "height": 12,
  "tilewidth": 32,
  "tileheight": 16,
  "nextlayerid": 3,
  "nextobjectid": 1,
  "tilesets": [
    {
      "firstgid": 1,
      "name": "forge",
      "tilewidth": 32,
      "tileheight": 16,
      "tilecount": 5,
      "columns": 5,
      "margin": 0,
      "spacing": 0,
      "image": "forge-tileset.png",
      "imagewidth": 160,
      "imageheight": 16,
      "tiles": [
        {
          "id": 1,
          "animation": [
            {
              "tileid": 1,
              "duration": 240
            },
            {
              "tileid": 2,
              "duration": 240
            },
            {
              "tileid": 3,
              "duration": 240
            }
          ]
        },
        {
          "id": 4,
          "properties": [
            {
              "name": "collides",
              "type": "bool",
              "value": true
            }
          ]
        }
      ]
    }
  ],
  "layers": [
    {
      "id": 1,
      "type": "tilelayer",
      "name": "Ground",
      "x": 0,
      "y": 0,
      "width": 14,
      "height": 12,
      "opacity": 1,
      "visible": true,
      "data": [
        5,
        5,
        5,
        5,
        5,
        5,
        5,
        5,
        5,
        5,
        5,
        5,
        5,
        5,
        5,
        1,
        1,
        1,
        1,
        1,
        1,
        1,
        1,
        1,
        1,
        1,
        1,
        5,
        5,
        1,
        1,
        5,
        1,
        1,
        1,
        1,
        1,
        1,
        1,
        1,
        1,
        5,
        5,
        1,
        1,
        5,
        1,
        1,
        1,
        1,
        1,
        1,
        1,
        1,
        1,
        5,
        5,
        1,
        1,
        5,
        1,
        2,
        2,
        1,
        2,
        2,
        1,
        1,
        1,
        5,
        5,
        1,
        1,
        1,
        1,
        2,
        2,
        2,
        2,
        2,
        1,
        1,
        1,
        5,
        5,
        1,
        1,
        1,
        1,
        2,
        2,
        2,
        2,
        2,
        1,
        1,
        1,
        5,
        5,
        1,
        1,
        1,
        1,
        2,
        2,
        1,
        2,
        2,
        5,
        1,
        1,
        5,
        5,
        1,
        1,
        1,
        1,
        1,
        1,
        1,
        1,
        1,
        5,
        1,
        1,
        5,
        5,
        1,
        1,
        1,
        1,
        1,
        1,
        1,
        1,
        1,
        5,
        1,
        1,
        5,
        5,
        1,
        1,
        1,
        1,
        1,
        1,
        1,
        1,
        1,
        1,
        1,
        1,
        5,
        5,
        5,
        5,
        5,
        5,
        5,
        5,
        5,
        5,
        5,
        5,
        5,
        5,
        5
      ]
    },
    {
      "id": 2,
      "type": "objectgroup",
      "name": "Objects",
      "opacity": 1,
      "visible": true,
      "x": 0,
      "y": 0,
      "draworder": "topdown",
      "objects": []
    }
  ]
}